X: 26613
T: Mickey Callaghan's Fancy
R: hornpipe
M: 4/4
K: Gmajor
|:BA|GEDE GABA|GEDE GABc|d3 e dBGB|A2 AG A2 BA|
GEDE GABA|GEDE GABc|d3 e dBGB|A2 G2 G2:|
|:Bd|e3 f edBc|d3 e dBGB|c2 BA B2 AG|EAAG A2 BA|
GEDE GABA|GEDE GABc|d3 e dBGB|A2 G2 G2:|

